resources/haticons/SVG/expand.svg

<!-- Generated by IcoMoon.io -->
<svg version="1.1" xmlns="http://www.w3.org/2000/svg" width="24" height="24" viewBox="0 0 24 24">
<title>expand</title>
<path d="M12.984 9v6h3l-3.984 3.984-3.984-3.984h3v-6h-3l3.984-3.984 3.984 3.984h-3zM3.984 2.016h16.031v1.969h-16.031v-1.969zM3.984 20.016h16.031v1.969h-16.031v-1.969z"></path>
</svg>

<svg xmlns="http://www.w3.org/2000/svg" width="24" height="24"><path d="M12.984 9v6h3L12 18.984 8.016 15h3V9h-3L12 5.016 15.984 9h-3zm-9-6.984h16.031v1.969H3.984V2.016zm0 18h16.031v1.969H3.984v-1.969z"/></svg>
